X:4148
T:Me Zo Ganet E Kreiz Ar Mor
O:england
C:Trad
R:Air
M:C
K:Em
L:1/4
|:z EBA|"Em"B4- |"Em"B ^cAG |"Bm"F4- |"Bm"FGAB |
"Em"E4-|"Em"EFGA |"C"{GA}GEDE |"Bm"F4-|"Bm"FBAB |
"Em"E4-|"Em"EFAG |"Em"E2 "Bm"{FE}D2-|"Bm"DEGA |
"G"B3G |"A"A2^c2|"Em"B4-|"Em"BEBA |
"Em"B4- |"Em"B^cAG |"Bm"F4- |"Bm"FGAB |
("A"E4 |("A"E4) |"Em"E4) :|


